!!!COM: Palestrina, Giovanni Perluigi da
!!!OPR: Veni sponsa Christi
!!!OTL: Benedictus
**kern	**kern	**kern	**kern
*ICvox	*ICvox	*ICvox	*ICvox
*Ibass	*Itenor	*Icalto	*Icalto
!Bassus	!Tenor	!Altus 2	!Altus 1
*clefF4	*clefGv2	*clefG2	*clefG2
*k[]	*k[]	*k[]	*k[]
*G:mix	*G:mix	*G:mix	*G:mix
*M4/2	*M4/2	*M4/2	*M4/2
=1	=1	=1	=1
0r	0d	0r	0r
=2	=2	=2	=2
0G	1B	0r	0r
.	1d	.	.
=3	=3	=3	=3
1E	1e	0r	0g
1G	2d	.	.
.	2B	.	.
=4	=4	=4	=4
1A	1c	0r	1e
2G	2B	.	1g
2E	2e	.	.
=5	=5	=5	=5
1F	2c	0r	1a
.	2.d	.	.
2E	.	.	2g
.	4c	.	.
4D	[2c	.	2e
4C	.	.	.
=6	=6	=6	=6
1D	2c]	1r	1f
.	2B	.	.
2C	1c	[1g	2e
[2c	.	.	4d
.	.	.	4c
=7	=7	=7	=7
2c]	1G	1g]	1d
2B	.	.	.
[1c	2r	1e	1c
.	[2g	.	.
=8	=8	=8	=8
1c]	2g]	1g	2r
.	2e	.	1cc
1F	1f	1a	.
.	.	.	2a
=9	=9	=9	=9
1C	2e	2g	2.cc
.	2c	2e	.
.	.	.	4b
1r	1d	1f	4a
.	.	.	4g
.	.	.	2f
=10	=10	=10	=10
0r	2c	2e	2g
.	4B	4d	2.a
.	4A	4c	.
.	2B	2d	.
.	.	.	4g
.	2c	2e	[2g
=11	=11	=11	=11
2r	1A	1c	2g]
1c	.	.	2f#
.	1G	2.d	1g
2B	.	.	.
.	.	4e	.
=12	=12	=12	=12
1A	0r	4f	2r
.	.	4e	.
.	.	4e	1cc
.	.	8d	.
.	.	8c	.
1G	.	1d	.
.	.	.	2b
=13	=13	=13	=13
1F	2r	1r	1a
.	1c	.	.
1G	.	[1d	1g
.	2B	.	.
=14	=14	=14	=14
2D	2A	1d]	2f#
2.G	1B	.	2g
.	.	1B	2d
4F	.	.	.
2E	2G	.	[2g
=15	=15	=15	=15
1D	1A	1d	2g]
.	.	.	2f#
4C	2c	1e	1g
4D	.	.	.
4E	4G	.	.
4F	4A	.	.
=16	=16	=16	=16
1G	4B	2d	1r
.	4c	.	.
.	2d	2B	.
1C	1e	1c	[1g
=17	=17	=17	=17
1G	2d	2B	1g]
.	4c	4A	.
.	4B	4G	.
2r	1c	1A	1e
[2c	.	.	.
=18	=18	=18	=18
2c]	1d	2G	1g
2B	.	1g	.
2c	2r	.	1a
2d	[2d	2f#	.
=19	=19	=19	=19
2B	2d]	1g	2g
2c	2e	.	2e
2.F	2c	[1a	1f
.	2A	.	.
4G	.	.	.
=20	=20	=20	=20
4A	1c	2a]	2e
4B	.	.	.
1c	.	2g	4d
.	.	.	4c
.	1G	1g	1d
2B	.	.	.
=21	=21	=21	=21
[0c	2g	0e	1c
.	2g	.	.
.	2g	.	2r
.	2g	.	2g
=22	=22	=22	=22
1c]	2.e	2r	2g
.	.	2g	2g
.	4f	.	.
1r	4g	2g	2.e
.	4f	.	.
.	4e	2g	.
.	4d	.	4f
=23	=23	=23	=23
2r	1c	2.e	4g
.	.	.	4f
2c	.	.	4e
.	.	4f	4d
2c	1r	4g	2c
.	.	4f	.
2c	.	4e	[2cc
.	.	4d	.
=24	=24	=24	=24
2.A	0r	2c	4cc]
.	.	.	4b
.	.	2.f	1a
4B	.	.	.
1c	.	.	.
.	.	4e	.
.	.	[2e	2g
=25	=25	=25	=25
2d	1r	2e]	2f
2d	.	2d	2f
1A	2r	[1e	1e
.	2c	.	.
=26	=26	=26	=26
2r	2c	0e]	1r
2c	2c	.	.
2c	2.A	.	2r
2c	.	.	2cc
.	4B	.	.
=27	=27	=27	=27
2.A	4c	0r	2cc
.	4B	.	.
.	4A	.	2cc
4B	4G	.	.
4c	2F	.	2.a
4B	.	.	.
4A	[2f	.	.
4G	.	.	4b
=28	=28	=28	=28
2F	4f]	1r	2cc
.	4e	.	.
2.G	4d	.	4b
.	4c	.	4a
.	2d	1g	4b
4F	.	.	4a
4E	[2e	.	4g
4D	.	.	4f
=29	=29	=29	=29
1.C	4e]	2g	1e
.	4d	.	.
.	4c	2g	.
.	4B	.	.
.	4c	1e	1r
.	4G	.	.
2E	[2c	.	.
=30	=30	=30	=30
1D	2c]	1.f	1r
.	2B	.	.
1C	1c	.	2r
.	.	4e	2g
.	.	4d	.
=31	=31	=31	=31
1r	2r	2e	2g
.	2g	2e	2g
2r	2g	1c	2.e
2c	2g	.	.
.	.	.	4f
=32	=32	=32	=32
2c	0e	2r	4g
.	.	.	4f
2c	.	2g	4e
.	.	.	4d
2.A	.	2a	2c
.	.	2a	2cc
4B	.	.	.
=33	=33	=33	=33
4c	2r	2g	2cc
4B	.	.	.
4A	2c	1a	2cc
4G	.	.	.
2F	2c	.	2.a
[2A	2c	2e	.
.	.	.	4b
=34	=34	=34	=34
4A]	1A	2e	4cc
4G	.	.	4b
4F	.	2.a	4a
4E	.	.	4g
4D	2.d	.	2f
4E	.	4g	.
2F	.	4f	[2a
.	4c	4e	.
=35	=35	=35	=35
2G	2B	2d	4a]
.	.	.	4g
2E	4A	2c	1g
.	4G	.	.
1D	2A	2.d	.
.	2A	.	2f#
.	.	4d	.
=36	=36	=36	=36
0G	0B	0d	0g
==	==	==	==
*-	*-	*-	*-
!!!CDT: 1525/^1526/-1594/2/2
!!!OCY: Italia
!!!AGN: Mass (Parody)
!!!AST: renaissance, vocal
!!!ASW: Motet 1563 (Palestrina)
!!!PWK: Masses, Book 9
!!!RNB: Cadence finals: G
!!!YOR: Le Opere Complete, v. 25, p. 30
!!!YOO: Rome, Italy: Fratelli Scalera
!!!END: 1992//
!!!EED: John Miller
!!!YEC: Copyright 2000, John Miller
!!!YEN: United States of America
!!!YEM: Rights to all derivative electronic formats reserved.
!!!YEM: Refer to licensing agreement for further details.
!!!YEM: This file must be accompanied by the licensing agreement.
!!!YEM: A copy of the licensing agreement may be found at http://www.music-cog.ohio-state.edu/HumdrumDatabases/Palestrina/license.txt
!!!EMD: converted to Humdrum by Bret Aarden
